X:1
P: Lexie McAskill
C: Dr. John McAskill, from Ceol Na Fidhle 1
C: arr. T. Traub 4-22-04
R: reel
M: 4/4
K: Am
L: 1/8
a2|: "Am"e2 e2 deed|"Am"e2 dB "G"GBBd|"Am"e2 e2 deed|1 "Em"egfd "Am"e2 ea :|2 "Em"egfd "Am"e2 ef ||
|: "Am"g2 f2 e2 dB|"D"A2 dB "G"GBBe|"Am"g2 f2 e2 dB|1"Em"egfd "Am"e2 ef :|2"Em"egfd "Am"e2 ea ||
|: "Am"e2 e2 e2 dB|"D"AAAB "G"GABd|"Am"e2 e2 e2 dB |1 "Em"egfd "Am"e2 ea :|2 "Em"egfd "Am"e2 eg ||
|: "Am"aeea eedB|"D"A2 dB "G"GBBe|"Am"aeea eedB|1"Em"egfd "Am"e2 g2 :|2 "Em"egfd "Am"e2 |]
